!!!!SEGMENT: pl-kk--kk-i-59--002_anonim--missa-a-3-et-in-terra.krn
!!!cenid: 17xx:2246
!!!COM: Anonim
!!!COM-rism: pe30004985
!!!CDT:
!!!CNT:
!!!OTL: Missa a 3 – Et in terra
!!!PDT:
!!!AGN: Sacred; Mass
!!!SMS-siglum: PL-Kk
!!!SMS-shelfmark: Kk.I.59
!!!NIFC-rismID: 1001156799
!!!URL-scan: http://repozytorium.nifc.pl/skany/pl-kk-nut--i-59
!!!ONB-nifc: UWAGA: części Mszy: 1. Kyrie, 2. Et in terra, 3. Sanctus, 4. Benedictus, 5. Agnus Dei.
!!!SMS-variant: Baſso PL Kk KK I 35:0008-0009
!!!SMS-altvar: Baſso PL Kk KK I 35:0010-0011
**kern	**text	**kern	**text	**kern	**text
*part3	*part3	*part2	*part2	*part1	*part1
*staff3	*staff3	*staff2	*staff2	*staff1	*staff1
*I"Baſso	*	*I"Tenore Secondo.	*	*I"Tenore Primo	*
*I'B	*	*I'T 2	*	*I'T 1	*
*clefF4	*	*clefC4	*	*clefC4	*
*k[b-e-]	*	*k[b-e-]	*	*k[b-e-]	*
*M2/2	*	*M2/2	*	*M2/2	*
*met(c|)	*	*met(c|)	*	*met(c|)	*
*2\right	*	*2\right	*	*2\right	*
=1	=1	=1	=1	=1	=1
!	!	!LO:TX:t=P:problem:kolejność bemoli:B-,E-	!	!LO:TX:t=P:problem:kreski pseudotaktowe regularnie co całą nutę	!
2.G\	Et	2.B-\	Et	2.d\	Et
4G\	in	4B-\	in	4d\	in
=2	=2	=2	=2	=2	=2
2G\	ter-	2B-\	ter-	2d\	ter-
2D\	-ra	2A\	-ra	2d\	-ra
=3	=3	=3	=3	=3	=3
2En\	pax	2G/	pax	1c	pax
!	!	!LO:TX:t=P:problem:przekreślona synkopowana wartość	!	!	!
2F#X\	ho-	1A	ho-	.	.
=4	=4	=4	=4	=4	=4
2.G\	-mi-	.	.	2r	.
!	!	!LO:TX:t=P:problem:przekreślona synkopowana wartość	!	!	!
.	.	1G/	-mi-	2B-\	ho-
4G\	-ni-	.	.	.	.
=5	=5	=5	=5	=5	=5
1D	-bus	.	.	2.A\	-mi-
.	.	2F#X/	-ni-	.	.
.	.	.	.	4A/	-ni-
=6	=6	=6	=6	=6	=6
2r	.	2G/	-bus	2G/	-bus
2G\	bo-	4r	.	2Bn\	bo-
!	!	!LO:TX:t=P:problem:przekreślona synkopowana wartość	!	!	!
.	.	2G/	bo-	.	.
=7	=7	=7	=7	=7	=7
2C/	-nae	.	.	2c\	-nae
.	.	4A\	-nae	.	.
2.BB-/	vo-	2.B-\	vo-	2.d\	vo-
=8	=8	=8	=8	=8	=8
.	.	.	.	.	.
4C/	-lun-	4G/	-lun-	4c\	-lun-
2D\	-ta-	2F#X/	-ta-	2A\	-ta-
=9	=9	=9	=9	=9	=9
!	!	!LO:SIC:v:s=2.F#/	!	!	!
2.D\	-tis	2.F/	-tis	1A	-tis
!	!	!LO:SIC:v:s=4F#/	!	!	!
4D\	lau-	4F/	lau-	.	.
!LO:LB:g=original	!	!	!	!	!
=10	=10	=10	=10	=10	=10
!	!	!	!	!LO:TX:a:t=1	!
2En\	-da-	2G/	-da-	1r	.
2F#X\	-mus	2A/	-mus	.	.
!	!	!LO:LB:g=original	!	!LO:LB:g=original	!
=11	=11	=11	=11	=11	=11
2G\	te	2B-\	te	2r	.
2GG/	be-	2B-\	be-	2G/	be-
=12	=12	=12	=12	=12	=12
2D\	-ne-	2A/	-ne-	2F#X/	-ne-
2.E-\	-di-	2.G/	-di-	2.B-\	-di-
=13	=13	=13	=13	=13	=13
.	.	.	.	.	.
4E-\	-ci-	4G/	-ci-	4B-\	-ci-
2C/	-mus	2A\	-mus	2c\	-mus
=14	=14	=14	=14	=14	=14
1BB-	te	2B-\	te	2d\	te
.	.	4r	.	2.d\	a-
!	!	!LO:TX:t=P:problem:przekreślona synkopowana wartość	!	!	!
.	.	2B-\	a-	.	.
=15	=15	=15	=15	=15	=15
2.D\	a-	.	.	.	.
.	.	4G/	-do-	4B-\	-do-
!	!	!LO:TX:t=P:problem:przekreślona synkopowana wartość	!	!LO:TX:t=P:problem:przekreślona synkopowana wartość	!
.	.	1F#X	-ra-	1A	-ra-
4D\	-do-	.	.	.	.
=16	=16	=16	=16	=16	=16
2D\	-ra-	.	.	.	.
2D\	-mus	2B-\	-mus	2G/	-mus
=17	=17	=17	=17	=17	=17
2.D\	te	1A	te	2.F#X/	te
4D\	glo-	.	.	4d\	glo-
=18	=18	=18	=18	=18	=18
!	!	!LO:TX:a:t=2	!	!	!
2En\	-ri-	0r	.	2c\	-ri-
2D\	-fi-	.	.	2Bn\	-fi-
!LO:LB:g=original	!	!	!	!	!
=19	=19	=19-	=19	=19	=19
4En\	-ca-	.	.	2c\	-ca-
4F#X\	.	.	.	.	.
!LO:TX:t=P:problem:brak kreski taktowej	!	!	!	!	!
1G	.	.	.	2B-\	-mus
=20-	=20	=20	=20	=20	=20
.	.	2r	.	1A	te
2F#X\	-mus	2.d\	gra-	.	.
=21	=21	=21	=21	=21	=21
1G	te	.	.	2r	.
.	.	4d\	-ti-	.	.
.	.	2G/	-as	2.d\	gra-
!	!	!	!	!LO:LB:g=original	!
=22	=22	=22	=22	=22	=22
!LO:TX:a:t=2	!	!	!	!	!
0r	.	2.B-\	a-	.	.
.	.	.	.	4d\	-ti-
.	.	.	.	2G/	-as
.	.	4A\	-gi-	.	.
=23-	=23	=23	=23	=23	=23
.	.	2G/	-mus	2.B-\	a-
.	.	2F#X/	ti-	.	.
.	.	.	.	4A\	-gi-
!	!	!LO:LB:g=original	!	!	!
=24	=24	=24	=24	=24	=24
2r	.	2G/	-bi	2G/	-mus
2D\	pro-	4A\	pto-	2F#X/	ti-
.	.	4Bn\	-pter	.	.
=25	=25	=25	=25	=25	=25
2En\	-pter	2c\	ma-	2G/	-bi
!LO:TX:t=P:problem:brak kreski taktowej	!	!	!	!	!
1F	ma-	2c\	-gnam	4A\	pro-
.	.	.	.	4B-\	pter
=26-	=26	=26	=26	=26	=26
.	.	2A\	glo-	2c\	ma-
2BB-/	-gnam	2B-\	-ri-	2d\	-gnam
=27	=27	=27	=27	=27	=27
2.F\	glo-	2A/	-am	2.c\	glo-
.	.	2G/	tu-	.	.
4E-X\	-ri-	.	.	4c\	-ri-
=28	=28	=28	=28	=28	=28
2D\	-am	2A\	-am	2F/	-am
!	!	!	!	!LO:TX:t=P:problem:przekreślona synkopowana wartość	!
2E-\	tu-	2.c\	Do-	1G/	tu-
=29	=29	=29	=29	=29	=29
!LO:TX:b:t=Volti. Sub.	!	!	!	!	!
1D	-am	.	.	.	.
.	.	4B-\	-mi-	.	.
!	!	!	!	!LO:TX:b:t=Volti. Sub.	!
.	.	2A\	-ne	2F#X/	-am
!LO:PB:g=original	!	!	!	!LO:PB:g=original	!
=30	=30	=30	=30	=30	=30
2r	.	2B-\	De-	2r	.
!LO:TX:t=P:problem:przekreślona synkopowana wartość	!	!	!	!	!
1F\	Do-	2A\	-us	2.c\	Do-
=31	=31	=31	=31	=31	=31
.	.	2d\	Rex	.	.
.	.	.	.	4B-\	-mi-
!	!	!LO:TX:b:t=V. S.	!	!	!
2F\	-mi-	2c\	Cae-	2A\	-ne
!	!	!LO:PB:g=original	!	!	!
=32	=32	=32	=32	=32	=32
2D\	-ne	2.F/	-le-	2B-\	De-
!LO:TX:t=P:problem:przekreślona synkopowana wartość	!	!	!	!	!
1D\	De-	.	.	2A\	-us
.	.	4G/	.	.	.
=33	=33	=33	=33	=33	=33
.	.	4A\	.	2f\	Rex
.	.	4B-\	.	.	.
2C/	-us	2.c\	.	2e-\	Cae-
=34	=34	=34	=34	=34	=34
2G\	Rex	.	.	2.d\	-le-
.	.	4B-\	.	.	.
!	!	!LO:TX:t=P:problem:nadliczbowa sylaba	!	!	!
2G\	Cae-	2.B-\	-stis-	.	.
.	.	.	.	8c\L	.
.	.	.	.	8B-\J	.
=35	=35	=35	=35	=35	=35
1F	-le-	.	.	1c	.
.	.	8A/L	.	.	.
.	.	8G/J	.	.	.
.	.	2A/	.	.	.
=36	=36	=36	=36	=36	=36
2BB-/	-stis	2B-\	-stis	2d\	-stis
!LO:TX:t=P:problem:przekreślona synkopowana wartość	!	!LO:TX:t=P:problem:przekreślona synkopowana wartość	!	!LO:TX:t=P:problem:przekreślona synkopowana wartość	!
1BB-/	De-	1d\	De-	1B-\	De-
=37	=37	=37	=37	=37	=37
.	.	.	.	.	.
2FF/	-us	2c\	-us	2A\	-us
=38	=38	=38	=38	=38	=38
1GG	Pa-	1B-	Pa-	1G	Pa-
=39	=39	=39	=39	=39	=39
2D\	-ter	2A/	-ter	2F#X/	-ter
2E-X\	o-	2G/	o-	2G/	o-
!	!	!	!	!LO:LB:g=original	!
=40	=40	=40	=40	=40	=40
2C/	-mni-	2.A/	-mni-	2G/	-mni-
2D/	-po-	.	.	2F#X/	-po-
.	.	4A/	-po-	.	.
=41	=41	=41	=41	=41	=41
2GG/	-tens	1G	-tens	2G/	-tens
2.G\	Do-	.	.	2.B-\	Do-
!LO:LB:g=original	!	!	!	!	!
=42	=42	=42	=42	=42	=42
!	!	!LO:TX:a:t=6	!	!	!
.	.	00r	.	.	.
4G\	-mi-	.	.	4B-\	-mi-
2D\	-ne	.	.	2A\	-ne
=43	=43	=43-	=43	=43	=43
2E-X\	Fi-	.	.	2G/	Fi-
2D\	-li	.	.	2F#X/	-li
=44	=44	=44-	=44	=44	=44
2r	.	.	.	4G/	U-
.	.	.	.	4A/	.
!LO:TX:t=P:problem:przekreślona synkopowana wartość	!	!	!	!	!
1G\	U-	.	.	4B-\	.
.	.	.	.	4c\	.
=45	=45	=45-	=45	=45	=45
.	-ni-	.	.	2d\	.
2F#X\	-ge-	.	.	2A\	-ni-
=46	=46	=46-	=46	=46	=46
4G\	.	0r	.	4B-\	-ge-
4F\	.	.	.	4c\	.
!	!	!	!	!LO:TX:t=P:problem:przekreślona synkopowana wartość	!
4F\	.	.	.	1d\	.
8En\L	.	.	.	.	.
8D\J	.	.	.	.	.
=47	=47	=47-	=47	=47	=47
2.En\	.	.	.	.	.
.	.	.	.	2c#X\	-ni-
4E\	-ni-	.	.	.	.
!	!	!LO:LB:g=original	!	!	!
=48	=48	=48	=48	=48	=48
2D\	-te	2r	.	1d	-te
!LO:TX:t=P:problem:przekreślona synkopowana wartość	!	!LO:TX:t=P:problem:przekreślona synkopowana wartość	!	!	!
1D\	Je-	1f\	Je-	.	.
=49	=49	=49	=49	=49	=49
.	.	.	.	1.A	Je-
2AA/	-su	2e-\	-su	.	.
=50	=50	=50	=50	=50	=50
1BB-	Chri-	1.d	Chri-	.	.
.	.	.	.	2G/	-su
!	!	!	!	!LO:LB:g=original	!
=51	=51	=51	=51	=51	=51
1AA	-ste	.	.	2F/	Chri-
.	.	2c#X\	-ste	2En/	-ste
=52	=52	=52	=52	=52	=52
!	!	!	!	!LO:TX:a:t=1	!
2.BB-/	Do-	2.d\	Do-	1r	.
4BB-/	-mi-	4d\	-mi-	.	.
!LO:LB:g=original	!	!	!	!	!
=53	=53	=53	=53	=53	=53
2C/	-ne	2G/	-ne	2r	.
!LO:TX:t=P:problem:przekreślona synkopowana wartość	!	!	!	!	!
1D	De-	2B-\	De-	2.F/	Do-
=54	=54	=54	=54	=54	=54
.	.	2A\	-us	.	.
.	.	.	.	4F/	-mi-
2En\	-us	2.c\	A-	2G/	-ne
=55	=55	=55	=55	=55	=55
2.F\	A-	.	.	1A	De-
.	.	4B-\	.	.	.
.	.	4A/	.	.	.
4En\	.	4G/	.	.	.
=56	=56	=56	=56	=56	=56
4D/	.	2F/	.	2A\	-us
4C/	.	.	.	.	.
!LO:TX:t=P:problem:przekreślona synkopowana wartość	!	!	!	!LO:TX:t=P:problem:przekreślona synkopowana wartość	!
1BB-/	.	2F/	-gnus	1d\	A-
=57	=57	=57	=57	=57	=57
.	.	2B-\	De-	.	.
2F\	gnus	2A\	-i	2c\	-gnus
=58	=58	=58	=58	=58	=58
!	!	!LO:TX:t=P:problem:pauza pominięta	!	!	!
1G	De-	1ryy	.	1B-	De-
=59	=59	=59	=59	=59	=59
2F\	-i	2r	.	2A\	-i
!	!	!LO:TX:t=P:problem:przekreślona synkopowana wartość	!	!LO:TX:t=P:problem:przekreślona synkopowana wartość	!
2.F\	Fi-	1d	Fi-	1A	Fi-
!	!	!LO:LB:g=original	!	!	!
=60	=60	=60	=60	=60	=60
.	.	.	.	.	.
4F\	-li-	.	.	.	.
2E-X\	-us	2c\	-li-	2G/	-li-
=61	=61	=61	=61	=61	=61
0D	Pa-	1c	-us	2F#X/	-us
!	!	!	!	!LO:TX:t=P:problem:przekreślona synkopowana wartość	!
.	.	.	.	1G	Pa-
=62-	=62	=62	=62	=62	=62
.	.	1B-	Pa-	.	.
.	.	.	.	2F#X/	.
=63	=63	=63	=63	=63	=63
!LO:TX:t=P:problem:pojedyncza kreska taktowa	!	!	!	!LO:SIC:v:s=1F#X;	!
1D;	-tris	1A;	-tris	1F;	-tris
=64	=64||	=64||	=64||	=64||	=64||
0D	Qui	2r	.	2r	.
!	!	!LO:TX:t=P:problem:przekreślona synkopowana wartość	!	!LO:TX:t=P:problem:przekreślona synkopowana wartość	!
.	.	1F#X	Qui	1A	Qui
!	!	!	!	!LO:LB:g=original	!
=65-	=65	=65	=65	=65	=65
.	.	.	.	.	.
!	!	!LO:TX:t=P:problem:przekreślona synkopowana wartość	!	!LO:TX:t=P:problem:przekreślona synkopowana wartość	!
.	.	1G/	tol-	1B-\	tol-
=66	=66	=66	=66	=66	=66
1D	tol-	.	.	.	.
!	!	!LO:TX:t=P:problem:przekreślona synkopowana wartość	!	!LO:TX:t=P:problem:przekreślona synkopowana wartość	!
.	.	1F#X	-lis	1A	-lis
!LO:LB:g=original	!	!	!	!	!
=67	=67	=67	=67	=67	=67
2D/	-lis	.	.	.	.
!	!	!LO:TX:t=P:problem:przekreślona synkopowana wartość	!	!LO:TX:t=P:problem:przekreślona synkopowana wartość	!
2BB-/	pec-	1B-\	pec-	1d\	pec-
=68	=68	=68	=68	=68	=68
1F	-ca-	.	.	.	.
.	.	2.A\	-ca-	2.c\	-ca-
=69	=69	=69	=69	=69	=69
1E-	-ta	.	.	.	.
.	.	4G/	-ta	4B-\	-ta
.	.	2.c\	mun-	2.e-\	mun-
=70	=70	=70	=70	=70	=70
1G	mun-	.	.	.	.
.	.	4B-\	.	4d\	.
.	.	2.B-\	.	4d\	.
.	.	.	.	8c\L	.
.	.	.	.	8B-\J	.
=71	=71	=71	=71	=71	=71
1F	-di	.	.	1c	.
.	.	8A\L	.	.	.
.	.	8G\J	.	.	.
.	.	2A\	.	.	.
=72	=72	=72	=72	=72	=72
2r	.	2B-\	-di	2d\	-di
!LO:TX:t=P:problem:przekreślona synkopowana wartość	!	!LO:TX:t=P:problem:przekreślona synkopowana wartość	!	!LO:TX:t=P:problem:przekreślona synkopowana wartość	!
1BB-	mi-	1B-	mi-	1d	mi-
=73	=73	=73	=73	=73	=73
.	.	.	.	.	.
2C/	-se-	2G/	-se-	2c\	-se-
!	!	!LO:LB:g=original	!	!	!
=74	=74	=74	=74	=74	=74
2D/	-re-	4F#X/	-re-	2A\	-re-
.	.	4F#/	-re	.	.
2BB-/	-re	2.G/	no-	2d\	-re
=75	=75	=75	=75	=75	=75
1AA	no-	.	.	1c	no-
.	.	8F#X/L	.	.	.
.	.	8En/J	.	.	.
.	.	2F#/	.	.	.
=76	=76	=76	=76	=76	=76
1GG	-bis	1G	-bis	1Bn	-bis
=77	=77	=77	=77	=77	=77
0D	qui	2r	.	2r	.
!	!	!LO:TX:t=P:problem:przekreślona synkopowana wartość	!	!LO:TX:t=P:problem:przekreślona synkopowana wartość	!
.	.	1F#X/	Qui	1A\	Qui
=78-	=78	=78	=78	=78	=78
.	.	.	.	.	.
!	!	!LO:TX:t=P:problem:przekreślona synkopowana wartość	!	!LO:TX:t=P:problem:przekreślona synkopowana wartość	!
.	.	1G	tol-	1B-	tol-
!	!	!	!	!LO:LB:g=original	!
=79	=79	=79	=79	=79	=79
1D	tol-	.	.	.	.
!	!	!LO:TX:t=P:problem:przekreślona synkopowana wartość	!	!LO:TX:t=P:problem:przekreślona synkopowana wartość	!
.	.	1F#X/	-lis	1A\	-lis
=80	=80	=80	=80	=80	=80
2D/	-lis	.	.	.	.
!	!	!LO:TX:t=P:problem:przekreślona synkopowana wartość	!	!LO:TX:t=P:problem:przekreślona synkopowana wartość	!
2BB-/	pec-	1B-	pec-	1d	pec-
!LO:LB:g=original	!	!	!	!	!
=81	=81	=81	=81	=81	=81
1F	-ca-	.	.	.	.
.	.	2.A\	-ca-	2.c\	ca-
=82	=82	=82	=82	=82	=82
1E-	-ta	.	.	.	.
.	.	4G/	-ta	4B-\	-ta
.	.	2.c\	mun-	2.e-\	mun-
=83	=83	=83	=83	=83	=83
1G	mun-	.	.	.	.
.	.	4B-\	.	4d\	.
.	.	2.B-\	.	4d\	.
.	.	.	.	8c\L	.
.	.	.	.	8B-\J	.
=84	=84	=84	=84	=84	=84
1F	-di	.	.	1c	.
.	.	8A\L	.	.	.
.	.	8G\J	.	.	.
.	.	2A\	.	.	.
=85	=85	=85	=85	=85	=85
2r	.	2B-\	-di	2d\	-di
2.BB-/	su-	2.d\	su-	2.B-\	sus-
=86	=86	=86	=86	=86	=86
.	.	.	.	.	.
4BB-/	-sci-	4d\	-sci-	4B-\	-ci-
!	!	!LO:LB:g=original	!	!	!
2BB-/	-pe	2d\	-pe	2B-\	-pe
=87	=87	=87	=87	=87	=87
2F\	de-	2c\	de-	2A/	de-
4G\	-pre-	4Bn\	-pre-	4G/	-pre-
!LO:TX:t=P:problem:przekreślona synkopowana wartość	!	!LO:TX:t=P:problem:przekreślona synkopowana wartość	!	!LO:TX:t=P:problem:przekreślona synkopowana wartość	!
2C/	-ca-	2e-\	-ca-	2G/	-ca-
=88	=88	=88	=88	=88	=88
.	.	.	.	.	.
4BBn/	-ti-	4d\	-ti-	4G/	-ti-
4C/	-o-	4c\	-o-	4G/	-o-
4GG/	-nem	4B-\	-nem	4G/	-nem
=89	=89	=89	=89	=89	=89
2D\	no-	2A\	no-	2F#X/	no-
4D\	-stram	2A\	-stram	2F#/	-stram
4D\	qui	.	.	.	.
!	!	!	!	!LO:LB:g=original	!
=90	=90	=90	=90	=90	=90
2G\	se-	2r	.	1r	.
2F\	-des	2A\	qui	.	.
!LO:LB:g=original	!	!	!	!	!
=91	=91	=91	=91	=91	=91
2BB-/	ad	2d\	se-	2r	.
4.F\	dex-	2c\	-des	2A\	qui
8F\	-te-	.	.	.	.
=92	=92	=92	=92	=92	=92
2G\	-ram	2B-\	ad	2d\	se-
2E-\	Pa-	4.G/	dex-	2c\	-des
.	.	8G/	-te-	.	.
=93	=93	=93	=93	=93	=93
2D\	-tris	2F#X/	-ram	2A\	ad
2r	.	2.G/	Pa-	4.B-\	dex-
.	.	.	.	8c\	-te-
=94	=94	=94	=94	=94	=94
2r	.	.	.	2d\	-ram
.	.	4G/	-tris	.	.
2.G\	mi-	2.d\	mi-	2B-\	Pa-
=95	=95	=95	=95	=95	=95
.	.	.	.	2A\	-tris
4F#X\	-se-	4A\	-se-	.	.
!LO:TX:t=P:problem:przekreślona synkopowana wartość	!	!LO:TX:t=P:problem:przekreślona synkopowana wartość	!	!LO:TX:t=P:problem:przekreślona synkopowana wartość	!
1G\	-re-	1B-\	-re-	1d\	mi-
!	!	!LO:LB:g=original	!	!	!
=96	=96	=96	=96	=96	=96
.	.	.	.	.	.
2C/	-re	4G/	-re	2c\	-se-
!	!	!LO:TX:t=P:problem:przekreślona synkopowana wartość	!	!	!
.	.	2A\	no-	.	.
=97	=97	=97	=97	=97	=97
1E-	no-	.	.	2B-\	-re-
.	.	4G/	.	.	.
!	!	!LO:TX:t=P:problem:przekreślona synkopowana wartość	!	!	!
.	.	1G/	.	2c\	-re
=98	=98	=98	=98	=98	=98
1D	-bis	.	.	2A\	no-
.	.	2F#X/	-bis	2A\	-bis
=99	=99	=99	=99	=99	=99
4.E-\	quo-	1r	.	4.G/	quo-
8E-\	-ni-	.	.	8G/	-ni-
!	!	!	!	!LO:LB:g=original	!
4E-\	-am	.	.	4G/	-am
4D\	tu	.	.	4F#X/	tu
=100	=100	=100	=100	=100	=100
4C/	so-	4r	.	4G/	so-
4BB-/	-lus	4d\	tu	4B-\	-lus
2F\	San-	2c\	so-	2A\	San-
!LO:LB:g=original	!	!	!	!	!
=101	=101	=101	=101	=101	=101
2BB-/	-ctus	2B-\	-lus	4B-\	-ctus
.	.	.	.	4d\	tu
2r	.	2.e-\	Do-	2c\	so-
=102	=102	=102	=102	=102	=102
4r	.	.	.	4B-\	-lus
4BB-/	tu	4d\	-mi-	2B-\	Do-
2F\	so-	2c\	-nus	.	.
.	.	.	.	4A\	-mi-
=103	=103	=103	=103	=103	=103
1.BB-	-lus	4r	.	2B-\	-nus
.	.	4d\	tu	.	.
!	!	!LO:TX:t=P:problem:przekreślona synkopowana wartość	!	!	!
.	.	1d\	so-	4r	.
.	.	.	.	4F/	tu
=104	=104	=104	=104	=104	=104
.	.	.	.	4.B-\	so-
.	.	.	.	8c\	.
2GG/	al-	2B-\	-lus	4d\	.
.	.	.	.	4e-\	.
=105	=105	=105	=105	=105	=105
2.D\	-tiſ-	2A\	al-	2f\	.
!	!	!LO:TX:t=P:problem:przekreślona synkopowana wartość	!	!	!
.	.	1B-\	-tiſ-	4d\	-lus
4En\	-si-	.	.	4G/	al-
!	!	!	!	!LO:PB:g=original	!
=106	=106	=106	=106	=106	=106
2F\	-mus	.	.	2.c\	-tiſ-
2F\	Je-	2A\	-si-	.	.
.	.	.	.	4c\	-si-
=107	=107	=107	=107	=107	=107
2BB-/	-su	2B-\	-mus	2d\	-mus
!LO:TX:t=P:problem:przekreślona synkopowana wartość	!	!LO:TX:t=P:problem:przekreślona synkopowana wartość	!	!	!
1BB-/	Chri-	1d\	Je-	4D/	Je-
.	.	.	.	4En/	.
=108	=108	=108	=108	=108	=108
.	.	.	.	4F/	.
.	.	.	.	4D/	.
!	!	!	!	!LO:TX:t=P:problem:przekreślona synkopowana wartość	!
2BB-/	.	2d\	-su	1G	.
!	!	!LO:LB:g=original	!	!	!
=109	=109	=109	=109	=109	=109
1AA	.	1c	Chri-	.	.
.	.	.	.	2F#X/	-su
=110	=110	=110	=110	=110	=110
2GG/	-ste	2Bn\	-ste	1G	Chri-
2G\	cum	2B-X\	cum	.	.
!LO:PB:g=original	!	!	!	!	!
=111	=111	=111	=111	=111	=111
2F\	San-	2c\	San-	2A\	-ste
4D\	-cto	4F/	-cto	2r	.
!LO:TX:t=P:problem:przekreślona synkopowana wartość	!	!LO:TX:t=P:problem:przekreślona synkopowana wartość	!	!	!
2E-X\	Spi-	2G/	Spi-	.	.
=112	=112	=112	=112	=112	=112
.	.	.	.	2r	.
4C/	-ri-	4A/	-ri-	.	.
4BB-/	-tu	4B-\	-tu	2d\	in
4BB-/	in	4B-\	in	.	.
=113	=113	=113	=113	=113	=113
4.F\	glo-	4.A\	glo-	4.c\	glo-
8F\	-ri-	8A\	-ri-	8c\	-ri-
2G\	-a	2G/	-a	2Bn\	-a
=114	=114	=114	=114	=114	=114
2C/	De-	2G/	De-	2e-\	De-
2D/	-i	2F#X/	-i	2d\	-i
!	!	!	!	!LO:LB:g=original	!
=115	=115	=115	=115	=115	=115
1E-X	Pa-	1G	Pa-	4c\	Pa-
.	.	.	.	4B-\	.
.	.	.	.	4B-\	.
.	.	.	.	8A/L	.
.	.	.	.	8G/J	.
=116	=116	=116	=116	=116	=116
1D	-tris	2F#X/	-tris	2A\	.
.	.	4F#/	A-	2B-\	-tris
.	.	4G/	.	.	.
=117	=117	=117	=117	=117	=117
!LO:TX:t=P:problem:brak kreski taktowej	!	!	!	!	!
(>1C	a-	4A/	.	2.c\	a-
.	.	4G/	.	.	.
!	!	!LO:TX:t=P:problem:przekreślona synkopowana wartość	!	!	!
.	.	1G/	.	.	.
.	.	.	.	4B-\	.
=118-	=118	=118	=118	=118	=118
1D)	.	.	.	1A	.
.	.	2F#X/	.	.	.
=119	=119	=119	=119	=119	=119
1GG;	-men	1G;	-men	1Bn	men
==	==	==	==	==	==
*-	*-	*-	*-	*-	*-
!!!system-decoration: [(s1,s2,s3)]
!!!RDF**kern: > = above
!!!RDF**kern: < = below
!!!ENC: Kamil Watkowski
!!!END: 2021-08-03
